X:325
T: Happy Hamster (The)
C: BB
R: jig
Q: 1/8=320
M: 6/8
L: 1/8
K: D
D|"D"DEF "Am"Ad=c|"D"AFA "C"GE=C|"D"DFA def|"Am7"agf e=cA|
"D"DEF "Am"Ad=c|"D"AFA "Am7"GA=c|"D"fdd "A7"^ceg|"D"fdc "D"d2 :|
A|"D"daa "Bm7"baa|"D"faf dAB|"C"=cgg "Am7"agg|"C"ege "Am"=cAc|
"D"dfa "Bm"baf|"C"=ceg "Am"age|"D"fdd "A7"^ceg|"D"fdc "D"d2 :|
%%%%%%%%%%%%%%%%%%%%%%%%%%%%%%%%%%%%%%%%%%%
